;TIME:816.37
;Filament used:1.63188m
;Layer height:0.300
; HEADER_BLOCK_START
; generated by Creality_Print V6.3.0.3420 on 2025-11-22 at 12:09:02
; total layer number: 24
; filament_density: 1.27
; filament_diameter: 1.75
; max_z_height: 4.90
; creality_uuid: 37587bb1-c545-459b-8b41-583a74fb4662
; HEADER_BLOCK_END

; MINX = 91.00
; MINY = 84.00
; MINZ = 0.00
; MAXX = 129.00
; MAXY = 136.00
; MAXZ = 5.00

; multicolor_method = 0 
; THUMBNAIL_BLOCK_START

;
; THUMBNAIL_BLOCK_END

; THUMBNAIL_BLOCK_START

;
; THUMBNAIL_BLOCK_END

; external perimeters extrusion width = 0.42mm
; perimeters extrusion width = 0.45mm
; infill extrusion width = 0.45mm
; solid infill extrusion width = 0.42mm
; top infill extrusion width = 0.42mm
; first layer extrusion width = 0.50mm

; EXECUTABLE_BLOCK_START
M73 P0 R13
M201 X5000 Y5000 Z500 E5000
M203 X500 Y500 Z30 E100
M204 P5000 R2500 T5000 ; sets acceleration (P, T) and retract acceleration (R), mm/sec^2
M205 X10.00 Y10.00 Z0.40 E5.00 ; sets the jerk limits, mm/sec
; max_print_temp = 70,220
;TYPE:Custom
M220 S100 ;Reset Feedrate 
M221 S100 ;Reset Flowrate 
 
M140 S70 ;Set final bed temp 
G28 ;Home 
 
G92 E0 ;Reset Extruder 
G1 Z2.0 F3000 ;Move Z Axis up 
M104 S220 ;Set final nozzle temp 
G1 X-2.1 Y20 Z0.28 F5000.0 ;Move to start position 
M190 S70 ;Wait for bed temp to stabilize 
M109 S220 ;Wait for nozzle temp to stabilize 
G1 X-2.1 Y145.0 Z0.28 F1500.0 E15 ;Draw the first line 
G1 X-2.4 Y145.0 Z0.28 F5000.0 ;Move to side a little 
G1 X-2.4 Y20 Z0.28 F1500.0 E30 ;Draw the second line 
G92 E0  ;Reset Extruder 
G1 E-1.0000 F1800 ;Retract a bit 
M73 P1 R13
G1 Z2.0 F3000 ;Move Z Axis up 
G1 E0.0000 F1800
G90
G21
M83 ; use relative distances for extrusion
;filament start gcode
G1 E-1.2 F1800
G1 Z.3 F9000
M106 S0
;LAYER_CHANGE
;Z:0.3
;HEIGHT:0.3
;BEFORE_LAYER_CHANGE
;0.3
G92 E0

;_SET_FAN_SPEED_CHANGING_LAYER
M204 P500
M205 X10 Y10
; printing object Object_1 id:3062648838 copy 0
M204 T500
G1 X123.08 Y134.729 Z.5 F9000
G1 Z.3
G1 E1.2 F1800
;TYPE:Inner wall
;WIDTH:0.5
G1 X92.271 Y134.729 E1.59021
G1 X92.271 Y129.086 E.29125
;WIDTH:0.533651
G1 X92.288 Y128.851 E.01308
;WIDTH:0.567302
G1 X92.305 Y128.617 E.01402
;WIDTH:0.600953
G1 X92.322 Y128.382 E.01496
G1 X92.322 Y124.418 E.25205
G1 X92.305 Y124.183 E.01496
;WIDTH:0.567302
G1 X92.288 Y123.949 E.01402
;WIDTH:0.533651
G1 X92.271 Y123.714 E.01308
;WIDTH:0.5
G1 X92.271 Y106.097 E.9093
;WIDTH:0.540476
G1 X92.291 Y105.635 E.02612
;WIDTH:0.580953
G1 X92.312 Y105.172 E.02834
G1 X92.312 Y103.308 E.11412
G1 X92.291 Y102.922 E.02363
;WIDTH:0.540476
G1 X92.271 Y102.537 E.02178
;WIDTH:0.5
G1 X92.271 Y99.453 E.15917
;WIDTH:0.540476
G1 X92.291 Y99.068 E.02178
;WIDTH:0.580953
G1 X92.312 Y98.682 E.02363
G1 X92.312 Y96.818 E.11412
G1 X92.291 Y96.355 E.02834
;WIDTH:0.540476
G1 X92.271 Y95.893 E.02612
;WIDTH:0.5
G1 X92.271 Y85.271 E.54823
G1 X127.729 Y85.271 E1.83018
G1 X127.729 Y117.569 E1.6671
;WIDTH:0.535476
G1 X127.711 Y118.029 E.02566
;WIDTH:0.570952
M73 P2 R13
G1 X127.693 Y118.488 E.02759
G1 X127.693 Y133.607 E.90751
G1 X127.711 Y134.168 E.03368
;WIDTH:0.535476
G1 X127.729 Y134.729 E.03132
;WIDTH:0.5
G1 X127.243 Y134.729 E.02506
;WIDTH:0.500953
G1 X123.226 Y134.729 E.20782
;WIDTH:0.5
G1 X123.12 Y134.729 E.00548
G1 E-1.2
;WIPE_START
G1 F9000
G1 X121.12 Y134.729
;WIPE_END
G1 X123.009 Y132.873 Z.5
G1 Z.3
G1 E1.2 F1800
G1 X123.009 Y118.488 E.74251
G1 X123.074 Y118.117 E.01941
G1 X123.269 Y117.781 E.02009
G1 X123.579 Y117.53 E.02057
G1 X123.968 Y117.399 E.02117
G1 X126.062 Y117.399 E.10811
G1 X126.481 Y117.483 E.02205
G1 X126.933 Y117.834 E.02958
;WIDTH:0.535476
G1 X127.06 Y118.161 E.01956
;WIDTH:0.570952
G1 X127.187 Y118.488 E.02103
G1 X127.187 Y133.202 E.8832
;WIDTH:0.581391
G1 X127.175 Y133.397 E.01198
G1 X127.027 Y133.66 E.01846
;WIDTH:0.540695
G1 X126.879 Y133.922 E.017
;WIDTH:0.500953
G1 X126.231 Y134.292 E.03859
G1 X124.098 Y134.292 E.11035
G1 X123.444 Y134.073 E.03564
;WIDTH:0.5
G1 X123.093 Y133.621 E.02958
G1 X123.009 Y133.202 E.02205
G1 X123.009 Y132.913 E.01492
G1 X123.444 Y132.788 F9000
G1 F1800
G1 X123.444 Y118.488 E.7381
G1 X123.51 Y118.203 E.01507
G1 X123.702 Y117.968 E.01569
G1 X123.787 Y117.913 E.0052
G1 X124.098 Y117.834 E.01657
G1 X126.062 Y117.834 E.10139
G1 X126.314 Y117.885 E.01323
G1 X126.585 Y118.096 E.01775
G1 X126.716 Y118.488 E.02133
G1 X126.716 Y133.202 E.7595
G1 X126.706 Y133.315 E.00585
G1 X126.552 Y133.634 E.01828
G1 X126.158 Y133.856 E.02336
G1 X124.098 Y133.856 E.10632
G1 X123.706 Y133.725 E.02133
G1 X123.495 Y133.454 E.01775
G1 X123.444 Y133.202 E.01323
G1 X123.444 Y132.828 E.01933
G1 X123.88 Y133.202 F9000
;TYPE:Outer wall
G1 F1800
G1 X123.88 Y118.488 E.7595
G1 X123.946 Y118.331 E.00878
G1 X124.098 Y118.27 E.00843
G1 X126.062 Y118.27 E.10139
G1 X126.236 Y118.357 E.01006
G1 X126.28 Y118.488 E.00711
G1 X126.28 Y133.202 E.7595
G1 X126.226 Y133.346 E.00795
G1 X126.062 Y133.42 E.00925
G1 X124.098 Y133.42 E.10139
G1 X123.967 Y133.376 E.00711
G1 X123.898 Y133.238 E.00799
G1 E-1.2
;WIPE_START
G1 F9000
G1 X123.895 Y131.238
;WIPE_END
G1 X124.249 Y127.438 Z.5
G1 X128.164 Y85.336 Z.5
G1 Z.3
G1 E1.2 F1800
;TYPE:Inner wall
G1 X128.164 Y135.164 E2.57197
G1 X91.836 Y135.164 E1.87515
G1 X91.836 Y84.836 E2.59778
M73 P3 R13
G1 X128.164 Y84.836 E1.87515
G1 X128.164 Y85.296 E.02374
G1 X128.6 Y84.4 F9000
;TYPE:Outer wall
G1 F1800
G1 X128.6 Y135.6 E2.64275
G1 X91.4 Y135.6 E1.92012
G1 X91.4 Y84.4 E2.64275
G1 X128.56 Y84.4 E1.91806
M73 P4 R13
G1 E-1.2
;WIPE_START
G1 F9000
G1 X128.562 Y86.4
;WIPE_END
G1 X127.788 Y90.137 Z.5
G1 X118.872 Y133.188 Z.5
G1 Z.3
G1 E1.2 F1800
;TYPE:Inner wall
G1 X118.823 Y133.274 E.00514
G1 X118.469 Y133.556 E.02336
G1 X118.121 Y133.671 E.01894
G1 X108.818 Y133.671 E.48018
G1 X108.305 Y133.543 E.02727
G1 X107.947 Y133.236 E.02439
G1 X107.772 Y132.887 E.02011
G1 X107.729 Y132.582 E.0159
G1 X107.729 Y130.718 E.09623
G1 X107.757 Y130.472 E.0128
G1 X107.912 Y130.114 E.02011
G1 X108.145 Y129.861 E.01777
G1 X108.475 Y129.684 E.01933
G1 X108.818 Y129.629 E.01791
G1 X117.982 Y129.629 E.47303
G1 X118.287 Y129.672 E.0159
G1 X118.636 Y129.847 E.02011
G3 X119.071 Y130.718 I-.653 J.871 E.05213
G1 X119.071 Y132.582 E.09623
G1 X119.009 Y132.944 E.01893
G1 X118.892 Y133.153 E.01239
G1 X118.388 Y133.076 F9000
G1 F1800
G1 X118.274 Y133.167 E.00753
G1 X117.982 Y133.236 E.0155
G1 X108.818 Y133.236 E.47303
G1 X108.51 Y133.159 E.01636
G1 X108.295 Y132.974 E.01463
G1 X108.164 Y132.713 E.01508
G1 X108.164 Y130.718 E.10298
G1 X108.181 Y130.57 E.00768
G1 X108.317 Y130.298 E.0157
G1 X108.541 Y130.126 E.01457
G1 X108.818 Y130.064 E.01463
G1 X117.982 Y130.064 E.47303
G1 X118.269 Y130.13 E.01517
M73 P4 R12
G1 X118.475 Y130.288 E.01339
G1 X118.636 Y130.595 E.0179
G1 X118.636 Y132.582 E.10256
G3 X118.479 Y132.992 I-.717 J-.039 E.02298
G1 X118.418 Y133.049 E.00433
G1 X118.2 Y132.582 F9000
;TYPE:Outer wall
G1 F1800
G1 X118.15 Y132.721 E.00759
G1 X117.982 Y132.8 E.0096
G1 X108.818 Y132.8 E.47303
G1 X108.644 Y132.713 E.01006
G1 X108.6 Y132.582 E.00711
G1 X108.6 Y130.718 E.09623
G1 X108.712 Y130.527 E.01141
G1 X109.18 Y130.5 E.02416
G1 X117.982 Y130.5 E.45436
G1 X118.113 Y130.544 E.00711
G1 X118.2 Y130.674 E.00811
G1 X118.2 Y132.542 E.09642
G1 E-1.2
;WIPE_START
G1 F9000
G1 X118.15 Y132.721
G1 X117.982 Y132.8
G1 X116.353 Y132.8
;WIPE_END
G1 X112.819 Y131.361 Z.5
G1 X96.943 Y124.895 Z.5
G1 Z.3
G1 E1.2 F1800
;TYPE:Inner wall
G1 X96.951 Y125.211 E.01632
G1 X96.951 Y128.382 E.1637
G1 X96.915 Y128.662 E.01455
G1 X96.781 Y128.966 E.01716
G1 X96.51 Y129.258 E.02056
G1 X96.099 Y129.445 E.02332
G3 X93.998 Y129.471 I-1.65 J-48.449 E.10845
G1 X93.693 Y129.428 E.0159
G1 X93.344 Y129.253 E.02011
G1 X93.037 Y128.895 E.02439
;WIDTH:0.533651
G1 X92.977 Y128.782 E.00707
;WIDTH:0.567302
G1 X92.918 Y128.67 E.00758
;WIDTH:0.600953
G1 X92.858 Y128.558 E.00808
G1 X92.858 Y124.418 E.2632
G1 X92.918 Y124.247 E.0115
;WIDTH:0.567302
G1 X92.977 Y124.076 E.01078
;WIDTH:0.533651
G1 X93.037 Y123.905 E.01006
;WIDTH:0.5
G1 X93.344 Y123.547 E.02439
G1 X93.693 Y123.372 E.02011
G1 X93.998 Y123.329 E.0159
G1 X95.862 Y123.329 E.09623
G1 X96.195 Y123.381 E.01741
G1 X96.538 Y123.564 E.02006
G1 X96.791 Y123.849 E.01964
G1 X96.923 Y124.171 E.018
G1 X96.942 Y124.855 E.03528
G1 X96.51 Y124.91 F9000
G1 F1800
G1 X96.516 Y125.211 E.01552
G3 X96.516 Y128.382 I-114.101 J1.586 E.16371
G1 X96.463 Y128.64 E.01357
G1 X96.344 Y128.824 E.01133
G1 X96.136 Y128.975 E.01325
G1 X95.862 Y129.036 E.01448
G1 X93.998 Y129.036 E.09623
G3 X93.421 Y128.69 I.044 J-.726 E.03608
G1 X93.344 Y128.382 E.01636
G1 X93.344 Y124.418 E.20463
G1 X93.421 Y124.11 E.01636
G1 X93.606 Y123.895 E.01463
G1 X93.867 Y123.764 E.01508
G1 X95.862 Y123.764 E.10298
G1 X96.134 Y123.824 E.01437
G1 X96.372 Y124.009 E.01555
G1 X96.499 Y124.27 E.01498
G1 X96.509 Y124.87 E.03099
G1 X96.08 Y124.418 F9000
;TYPE:Outer wall
G1 F1800
G1 X96.08 Y128.382 E.20463
G1 X96.023 Y128.529 E.00816
G1 X95.862 Y128.6 E.00905
G1 X93.998 Y128.6 E.09623
G1 X93.867 Y128.556 E.00711
G1 X93.78 Y128.414 E.0086
G1 X93.78 Y124.418 E.20629
G1 X93.867 Y124.244 E.01006
G1 X93.998 Y124.2 E.00711
G1 X95.862 Y124.2 E.09623
G1 X96.021 Y124.268 E.0089
G1 X96.065 Y124.381 E.00624
G1 E-1.2
;WIPE_START
G1 F9000
G1 X96.073 Y126.381
;WIPE_END
G1 X96.475 Y122.586 Z.5
G1 X98.616 Y102.403 Z.5
G1 Z.3
G1 E1.2 F1800
;TYPE:Inner wall
G1 X98.881 Y102.652 E.01877
G1 X99.055 Y102.993 E.01976
G1 X99.101 Y103.308 E.01643
G1 X99.101 Y105.172 E.09623
G1 X99.04 Y105.533 E.01892
G1 X98.847 Y105.872 E.0201
G1 X98.579 Y106.102 E.01825
G1 X98.249 Y106.235 E.01833
G1 X98.012 Y106.261 E.01232
G1 X93.958 Y106.261 E.20927
G1 X93.539 Y106.177 E.02205
M73 P5 R12
G1 X93.087 Y105.826 E.02958
;WIDTH:0.540476
G1 X92.957 Y105.586 E.01536
;WIDTH:0.580953
G1 X92.828 Y105.346 E.01666
G1 X92.828 Y103.308 E.12478
G1 X92.927 Y103.027 E.01821
;WIDTH:0.540476
G1 X93.025 Y102.746 E.01678
;WIDTH:0.5
G1 X93.382 Y102.383 E.0263
G1 X93.872 Y102.219 E.02665
G1 X98.012 Y102.219 E.21371
G1 X98.355 Y102.274 E.0179
G1 X98.581 Y102.384 E.013
G1 X98.505 Y102.897 F9000
G1 F1800
G1 X98.632 Y103.1 E.01235
G1 X98.666 Y103.308 E.01087
G1 X98.666 Y105.172 E.09623
G1 X98.603 Y105.451 E.01477
G1 X98.419 Y105.683 E.01528
G1 X98.122 Y105.826 E.01701
G1 X93.958 Y105.826 E.21492
G1 X93.706 Y105.775 E.01323
G1 X93.435 Y105.564 E.01775
G1 X93.304 Y105.262 E.01698
G1 X93.304 Y103.308 E.10089
G1 X93.398 Y102.971 E.01805
G1 X93.613 Y102.753 E.01578
G1 X93.958 Y102.654 E.01853
G1 X98.012 Y102.654 E.20927
G1 X98.218 Y102.688 E.01074
G1 X98.473 Y102.844 E.01545
G1 X98.484 Y102.863 E.00113
G1 X98.012 Y103.09 F9000
;TYPE:Outer wall
G1 F1800
G1 X98.166 Y103.153 E.00857
G1 X98.23 Y103.308 E.00864
G1 X98.23 Y105.172 E.09623
G1 X98.159 Y105.333 E.00906
G1 X98.012 Y105.39 E.00815
G1 X93.958 Y105.39 E.20927
G1 X93.784 Y105.303 E.01006
G1 X93.74 Y105.172 E.00711
G1 X93.74 Y103.308 E.09623
G1 X93.771 Y103.195 E.00602
G1 X93.924 Y103.09 E.00957
G1 X97.972 Y103.09 E.20897
G1 E-1.2
;WIPE_START
G1 F9000
G1 X98.166 Y103.153
G1 X98.23 Y103.308
G1 X98.23 Y104.937
;WIPE_END
G1 X98.646 Y101.143 Z.5
G1 X99.101 Y96.986 Z.5
G1 Z.3
G1 E1.2 F1800
;TYPE:Inner wall
G1 X99.101 Y98.682 E.08753
G1 X99.031 Y99.067 E.02018
G1 X98.881 Y99.338 E.01601
G1 X98.613 Y99.59 E.01897
G1 X98.355 Y99.716 E.01486
G1 X98.012 Y99.771 E.0179
G1 X93.958 Y99.771 E.20927
G1 X93.761 Y99.753 E.01018
G1 X93.382 Y99.607 E.02097
G1 X93.025 Y99.244 E.0263
;WIDTH:0.540476
G1 X92.927 Y99.049 E.01229
;WIDTH:0.580953
G1 X92.828 Y98.855 E.01334
G1 X92.828 Y96.818 E.12469
G1 X92.957 Y96.491 E.0215
;WIDTH:0.540476
G1 X93.087 Y96.164 E.01982
;WIDTH:0.5
G1 X93.539 Y95.813 E.02958
G1 X93.958 Y95.729 E.02205
G1 X98.012 Y95.729 E.20927
G1 X98.407 Y95.803 E.02072
G1 X98.728 Y95.997 E.0194
G1 X98.943 Y96.252 E.0172
G1 X99.101 Y96.653 E.02225
G1 X99.101 Y96.946 E.01513
G1 X98.666 Y97.318 F9000
G1 F1800
G1 X98.666 Y98.682 E.07042
G1 X98.596 Y98.976 E.01559
G1 X98.473 Y99.146 E.01083
G1 X98.218 Y99.302 E.01545
G1 X98.012 Y99.336 E.01074
G1 X93.958 Y99.336 E.20927
G1 X93.613 Y99.237 E.01853
G1 X93.398 Y99.019 E.01578
G1 X93.304 Y98.682 E.01805
G1 X93.304 Y96.818 E.09623
G1 X93.435 Y96.426 E.02133
G1 X93.706 Y96.215 E.01775
G1 X93.958 Y96.164 E.01323
G1 X98.012 Y96.164 E.20927
G1 X98.32 Y96.241 E.01636
G1 X98.535 Y96.426 E.01463
G1 X98.666 Y96.715 E.01637
G1 X98.666 Y97.278 E.02907
G1 X98.23 Y96.818 F9000
;TYPE:Outer wall
G1 F1800
G1 X98.23 Y98.682 E.09623
G1 X98.166 Y98.837 E.00864
G1 X98.012 Y98.9 E.00857
G1 X93.958 Y98.9 E.20927
G1 X93.843 Y98.867 E.00618
G1 X93.74 Y98.715 E.00948
G1 X93.74 Y96.818 E.09792
G1 X93.784 Y96.687 E.00711
G1 X93.958 Y96.6 E.01006
G1 X98.012 Y96.6 E.20927
G1 X98.172 Y96.67 E.00901
G1 X98.215 Y96.781 E.00613
G1 E-1.2
;WIPE_START
G1 F9000
G1 X98.23 Y98.682
G1 X98.192 Y98.773
;WIPE_END
G1 X98.614 Y102.092 Z.5
G1 Z.5
G1 Z.3
G1 E1.2 F1800
;TYPE:Gap infill
;WIDTH:0.131936
G1 X98.749 Y102.188 E.00132
;WIDTH:0.123806
G1 X98.873 Y102.3 E.00118
G1 X99.002 Y102.428 F9000
;WIDTH:0.142271
G1 F1800
G1 X99.161 Y102.608 E.00222
;WIDTH:0.166533
G3 X99.264 Y102.757 I-1.158 J.911 E.00219
;WIDTH:0.214248
G1 X99.361 Y102.898 E.00304
G1 E-1.2
;WIPE_START
G1 F9000
G1 X99.264 Y102.757
;WIPE_END
G1 X98.503 Y102.203 Z.5
G1 Z.3
G1 E1.2 F1800
;TYPE:Bottom surface
;WIDTH:0.50041
G1 F4586.851
G1 X96.398 Y100.098 E.15381
G1 X95.781 Y100.098 E.03186
G1 X97.576 Y101.892 E.13109
G1 X96.959 Y101.892 E.03186
G1 X95.165 Y100.098 E.13109
G1 X94.548 Y100.098 E.03186
G1 X96.342 Y101.892 E.13109
G1 X95.726 Y101.892 E.03186
G1 X93.929 Y100.096 E.13124
G1 X93.697 Y100.075 E.01206
G1 X93.206 Y99.885 E.02719
G1 X92.751 Y99.423 E.03348
G1 X92.638 Y99.232 E.01147
G1 X92.61 Y99.393 E.00842
G1 X95.109 Y101.892 E.1826
G1 X94.492 Y101.892 E.03186
G1 X92.598 Y99.998 E.13842
G1 X92.598 Y100.614 E.03186
G1 X93.882 Y101.898 E.09383
G1 X93.697 Y101.915 E.00961
G1 X93.398 Y102.031 E.01656
G1 X92.598 Y101.231 E.05846
G1 X92.598 Y101.848 E.03186
G1 X93.032 Y102.282 E.03173
G1 X92.734 Y102.6 E.02254
G1 X92.402 Y102.268 E.02428
G1 X92.52 Y102.836 F9000
;TYPE:Gap infill
;WIDTH:0.133021
G1 F1800
G2 X92.745 Y102.867 I.172 J-.421 E.00187
G1 E-1.2
;WIPE_START
G1 F9000
G1 X92.67 Y102.869
G1 X92.52 Y102.836
;WIPE_END
G1 X94.867 Y105.846 Z.5
G1 X95.292 Y106.392 Z.5
G1 Z.3
G1 E1.2 F1800
;TYPE:Bottom surface
;WIDTH:0.50041
G1 F4586.851
G1 X118.227 Y129.326 E1.6757
G2 X117.586 Y129.302 I-.432 J2.935 E.0332
G1 X94.872 Y106.588 E1.65961
G1 X94.255 Y106.588 E.03186
G1 X116.969 Y129.302 E1.65961
G1 X116.353 Y129.302 E.03186
G1 X93.561 Y106.511 E1.66524
G1 X93.409 Y106.48 E.00805
G1 X92.83 Y106.03 E.03788
G1 X92.648 Y105.732 E.01803
M73 P6 R12
G2 X92.598 Y106.164 I1.588 J.402 E.02251
G1 X115.736 Y129.302 E1.69058
G1 X115.119 Y129.302 E.03186
G1 X92.598 Y106.781 E1.64553
G1 X92.598 Y107.397 E.03186
G1 X114.503 Y129.302 E1.60047
G1 X113.886 Y129.302 E.03186
G1 X92.598 Y108.014 E1.55542
G1 X92.598 Y108.631 E.03186
G1 X113.269 Y129.302 E1.51036
G1 X112.653 Y129.302 E.03186
G1 X92.598 Y109.247 E1.46531
G1 X92.598 Y109.864 E.03186
G1 X112.036 Y129.302 E1.42026
G1 X111.42 Y129.302 E.03186
G1 X92.598 Y110.48 E1.3752
G1 X92.598 Y111.097 E.03186
G1 X110.803 Y129.302 E1.33015
G1 X110.186 Y129.302 E.03186
G1 X92.598 Y111.714 E1.28509
G1 X92.598 Y112.33 E.03186
G1 X109.57 Y129.302 E1.24004
G1 X108.953 Y129.302 E.03186
G1 X92.598 Y112.947 E1.19498
G1 X92.598 Y113.564 E.03186
G1 X108.404 Y129.37 E1.15488
G2 X107.991 Y129.573 I.494 J1.524 E.02388
G1 X92.598 Y114.18 E1.1247
G1 X92.598 Y114.797 E.03186
G1 X107.682 Y129.881 E1.10212
G2 X107.471 Y130.287 I1.007 J.782 E.02375
G1 X92.598 Y115.414 E1.0867
G1 X92.598 Y116.03 E.03186
G1 X107.41 Y130.843 E1.08227
G1 X107.407 Y131.456 E.03171
M73 P7 R12
G1 X92.598 Y116.647 E1.08205
G1 X92.598 Y117.263 E.03186
G1 X107.405 Y132.07 E1.08184
G1 X107.402 Y132.59 E.02685
G1 X107.418 Y132.7 E.00576
G1 X92.598 Y117.88 E1.08281
G1 X92.598 Y118.497 E.03186
G1 X108.503 Y134.402 E1.16209
G1 X109.119 Y134.402 E.03186
G1 X108.686 Y133.968 E.03165
G1 X108.804 Y133.998 E.0063
G1 X109.332 Y133.998 E.02728
G1 X109.736 Y134.402 E.02949
G1 X110.353 Y134.402 E.03186
G1 X109.949 Y133.998 E.02949
G1 X110.566 Y133.998 E.03186
G1 X110.969 Y134.402 E.02949
