;TIME:439.46
;Filament used:0.97488m
;Layer height:0.300
; HEADER_BLOCK_START
; generated by Creality_Print V6.3.0.3420 on 2025-11-21 at 23:12:19
; total layer number: 14
; filament_density: 1.27
; filament_diameter: 1.75
; max_z_height: 2.90
; creality_uuid: 54d53ee0-6909-4cb6-9545-47f80442d357
; HEADER_BLOCK_END

; MINX = 91.00
; MINY = 84.00
; MINZ = 0.00
; MAXX = 129.00
; MAXY = 136.00
; MAXZ = 3.00

; multicolor_method = 0 
; THUMBNAIL_BLOCK_START

;
; THUMBNAIL_BLOCK_END

; THUMBNAIL_BLOCK_START

;
; THUMBNAIL_BLOCK_END

; external perimeters extrusion width = 0.42mm
; perimeters extrusion width = 0.45mm
; infill extrusion width = 0.45mm
; solid infill extrusion width = 0.42mm
; top infill extrusion width = 0.42mm
; first layer extrusion width = 0.50mm

; EXECUTABLE_BLOCK_START
M73 P0 R7
M201 X5000 Y5000 Z500 E5000
M203 X500 Y500 Z30 E100
M204 P5000 R2500 T5000 ; sets acceleration (P, T) and retract acceleration (R), mm/sec^2
M205 X10.00 Y10.00 Z0.40 E5.00 ; sets the jerk limits, mm/sec
; max_print_temp = 70,220
;TYPE:Custom
M220 S100 ;Reset Feedrate 
M221 S100 ;Reset Flowrate 
 
M140 S70 ;Set final bed temp 
G28 ;Home 
 
G92 E0 ;Reset Extruder 
G1 Z2.0 F3000 ;Move Z Axis up 
M104 S220 ;Set final nozzle temp 
G1 X-2.1 Y20 Z0.28 F5000.0 ;Move to start position 
M190 S70 ;Wait for bed temp to stabilize 
M109 S220 ;Wait for nozzle temp to stabilize 
G1 X-2.1 Y145.0 Z0.28 F1500.0 E15 ;Draw the first line 
G1 X-2.4 Y145.0 Z0.28 F5000.0 ;Move to side a little 
M73 P1 R7
G1 X-2.4 Y20 Z0.28 F1500.0 E30 ;Draw the second line 
G92 E0  ;Reset Extruder 
G1 E-1.0000 F1800 ;Retract a bit 
M73 P2 R7
G1 Z2.0 F3000 ;Move Z Axis up 
G1 E0.0000 F1800
G90
G21
M83 ; use relative distances for extrusion
;filament start gcode
G1 E-1.2 F1800
G1 Z.3 F9000
M106 S0
;LAYER_CHANGE
;Z:0.3
;HEIGHT:0.3
;BEFORE_LAYER_CHANGE
;0.3
G92 E0

;_SET_FAN_SPEED_CHANGING_LAYER
M204 P500
M205 X10 Y10
; printing object Object_1 id:0 copy 0
M204 T500
G1 X127.729 Y85.887 Z.5 F9000
G1 Z.3
G1 E1.2 F1800
;TYPE:Inner wall
;WIDTH:0.5
G1 X127.729 Y134.729 E2.52101
G1 X92.271 Y134.729 E1.83018
G1 X92.271 Y85.271 E2.55281
M73 P3 R7
G1 X127.729 Y85.271 E1.83018
G1 X127.729 Y85.847 E.02973
G1 X128.164 Y85.336 F9000
G1 F1800
G1 X128.164 Y135.164 E2.57197
G1 X91.836 Y135.164 E1.87515
M73 P4 R7
G1 X91.836 Y84.836 E2.59778
G1 X128.164 Y84.836 E1.87515
M73 P4 R6
G1 X128.164 Y85.296 E.02374
M73 P5 R6
G1 X128.6 Y84.4 F9000
;TYPE:Outer wall
G1 F1800
G1 X128.6 Y135.6 E2.64275
G1 X91.4 Y135.6 E1.92012
G1 X91.4 Y84.4 E2.64275
G1 X128.56 Y84.4 E1.91806
M73 P6 R6
G1 E-1.2
;WIPE_START
G1 F9000
G1 X128.562 Y86.4
;WIPE_END
G1 X127.598 Y86.283 Z.5
G1 Z.5
G1 Z.3
G1 E1.2 F1800
;TYPE:Bottom surface
;WIDTH:0.50041
G1 F4586.851
G1 X126.913 Y85.598 E.05008
G1 X126.296 Y85.598 E.03186
G1 X127.402 Y86.704 E.08081
G1 X127.402 Y87.321 E.03186
G1 X125.679 Y85.598 E.12587
G1 X125.063 Y85.598 E.03186
G1 X127.402 Y87.937 E.17092
G1 X127.402 Y88.554 E.03186
G1 X124.446 Y85.598 E.21598
G1 X123.829 Y85.598 E.03186
G1 X127.402 Y89.171 E.26103
G1 X127.402 Y89.787 E.03186
G1 X123.213 Y85.598 E.30609
G1 X122.596 Y85.598 E.03186
G1 X127.402 Y90.404 E.35114
G1 X127.402 Y91.02 E.03186
G1 X121.98 Y85.598 E.3962
G1 X121.363 Y85.598 E.03186
G1 X127.402 Y91.637 E.44125
G1 X127.402 Y92.254 E.03186
G1 X120.746 Y85.598 E.48631
G1 X120.13 Y85.598 E.03186
G1 X127.402 Y92.87 E.53136
M73 P7 R6
G1 X127.402 Y93.487 E.03186
G1 X119.513 Y85.598 E.57641
G1 X118.896 Y85.598 E.03186
G1 X127.402 Y94.104 E.62147
G1 X127.402 Y94.72 E.03186
G1 X118.28 Y85.598 E.66652
G1 X117.663 Y85.598 E.03186
G1 X127.402 Y95.337 E.71158
G1 X127.402 Y95.954 E.03186
G1 X117.046 Y85.598 E.75663
G1 X116.43 Y85.598 E.03186
G1 X127.402 Y96.57 E.80169
G1 X127.402 Y97.187 E.03186
G1 X115.813 Y85.598 E.84674
G1 X115.197 Y85.598 E.03186
G1 X127.402 Y97.803 E.8918
G1 X127.402 Y98.42 E.03186
G1 X114.58 Y85.598 E.93685
G1 X113.963 Y85.598 E.03186
G1 X127.402 Y99.037 E.98191
G1 X127.402 Y99.653 E.03186
G1 X113.347 Y85.598 E1.02696
G1 X112.73 Y85.598 E.03186
G1 X127.402 Y100.27 E1.07202
G1 X127.402 Y100.887 E.03186
M73 P8 R6
G1 X112.113 Y85.598 E1.11707
G1 X111.497 Y85.598 E.03186
G1 X127.402 Y101.503 E1.16212
G1 X127.402 Y102.12 E.03186
G1 X110.88 Y85.598 E1.20718
G1 X110.263 Y85.598 E.03186
G1 X127.402 Y102.737 E1.25223
G1 X127.402 Y103.353 E.03186
G1 X109.647 Y85.598 E1.29729
G1 X109.03 Y85.598 E.03186
G1 X127.402 Y103.97 E1.34234
G1 X127.402 Y104.586 E.03186
G1 X108.414 Y85.598 E1.3874
G1 X107.797 Y85.598 E.03186
G1 X127.402 Y105.203 E1.43245
G1 X127.402 Y105.82 E.03186
G1 X107.18 Y85.598 E1.47751
G1 X106.564 Y85.598 E.03186
M73 P9 R6
G1 X127.402 Y106.436 E1.52256
G1 X127.402 Y107.053 E.03186
G1 X105.947 Y85.598 E1.56762
G1 X105.33 Y85.598 E.03186
G1 X127.402 Y107.67 E1.61267
G1 X127.402 Y108.286 E.03186
G1 X104.714 Y85.598 E1.65773
G1 X104.097 Y85.598 E.03186
G1 X127.402 Y108.903 E1.70278
G1 X127.402 Y109.52 E.03186
G1 X103.48 Y85.598 E1.74784
G1 X102.864 Y85.598 E.03186
G1 X127.402 Y110.136 E1.79289
G1 X127.402 Y110.753 E.03186
G1 X102.247 Y85.598 E1.83794
G1 X101.63 Y85.598 E.03186
M73 P10 R6
G1 X127.402 Y111.37 E1.883
G1 X127.402 Y111.986 E.03186
G1 X101.014 Y85.598 E1.92805
G1 X100.397 Y85.598 E.03186
G1 X127.402 Y112.603 E1.97311
G1 X127.402 Y113.219 E.03186
G1 X99.781 Y85.598 E2.01816
G1 X99.164 Y85.598 E.03186
G1 X127.402 Y113.836 E2.06322
G1 X127.402 Y114.453 E.03186
G1 X98.547 Y85.598 E2.10827
G1 X97.931 Y85.598 E.03186
G1 X127.402 Y115.069 E2.15333
G1 X127.402 Y115.686 E.03186
M73 P11 R6
G1 X97.314 Y85.598 E2.19838
G1 X96.697 Y85.598 E.03186
G1 X127.402 Y116.303 E2.24344
G1 X127.402 Y116.919 E.03186
G1 X96.081 Y85.598 E2.28849
G1 X95.464 Y85.598 E.03186
G1 X127.402 Y117.536 E2.33355
G1 X127.402 Y118.153 E.03186
G1 X94.847 Y85.598 E2.3786
G1 X94.231 Y85.598 E.03186
G1 X127.402 Y118.769 E2.42366
G1 X127.402 Y119.386 E.03186
M73 P12 R6
G1 X93.614 Y85.598 E2.46871
G1 X92.998 Y85.598 E.03186
G1 X127.402 Y120.002 E2.51376
G1 X127.402 Y120.619 E.03186
G1 X92.598 Y85.815 E2.54296
G1 X92.598 Y86.432 E.03186
G1 X127.402 Y121.236 E2.54296
G1 X127.402 Y121.852 E.03186
G1 X92.598 Y87.048 E2.54296
G1 X92.598 Y87.665 E.03186
G1 X127.402 Y122.469 E2.54296
G1 X127.402 Y123.086 E.03186
M73 P13 R6
G1 X92.598 Y88.282 E2.54296
G1 X92.598 Y88.898 E.03186
G1 X127.402 Y123.702 E2.54296
G1 X127.402 Y124.319 E.03186
G1 X92.598 Y89.515 E2.54296
G1 X92.598 Y90.131 E.03186
G1 X127.402 Y124.936 E2.54296
G1 X127.402 Y125.552 E.03186
G1 X92.598 Y90.748 E2.54296
G1 X92.598 Y91.365 E.03186
M73 P14 R6
G1 X127.402 Y126.169 E2.54296
G1 X127.402 Y126.785 E.03186
G1 X92.598 Y91.981 E2.54296
G1 X92.598 Y92.598 E.03186
G1 X127.402 Y127.402 E2.54296
G1 X127.402 Y128.019 E.03186
G1 X92.598 Y93.215 E2.54296
G1 X92.598 Y93.831 E.03186
G1 X127.402 Y128.635 E2.54296
G1 X127.402 Y129.252 E.03186
G1 X92.598 Y94.448 E2.54296
G1 X92.598 Y95.065 E.03186
M73 P15 R6
G1 X127.402 Y129.869 E2.54296
G1 X127.402 Y130.485 E.03186
G1 X92.598 Y95.681 E2.54296
G1 X92.598 Y96.298 E.03186
G1 X127.402 Y131.102 E2.54296
G1 X127.402 Y131.719 E.03186
G1 X92.598 Y96.914 E2.54296
G1 X92.598 Y97.531 E.03186
G1 X127.402 Y132.335 E2.54296
G1 X127.402 Y132.952 E.03186
M73 P16 R6
G1 X92.598 Y98.148 E2.54296
G1 X92.598 Y98.764 E.03186
G1 X127.402 Y133.568 E2.54296
G1 X127.402 Y134.185 E.03186
G1 X92.598 Y99.381 E2.54296
G1 X92.598 Y99.998 E.03186
G1 X127.002 Y134.402 E2.51376
G1 X126.386 Y134.402 E.03186
G1 X92.598 Y100.614 E2.4687
G1 X92.598 Y101.231 E.03186
G1 X125.769 Y134.402 E2.42365
G1 X125.152 Y134.402 E.03186
M73 P17 R6
G1 X92.598 Y101.848 E2.37859
G1 X92.598 Y102.464 E.03186
G1 X124.536 Y134.402 E2.33354
G1 X123.919 Y134.402 E.03186
G1 X92.598 Y103.081 E2.28848
G1 X92.598 Y103.697 E.03186
G1 X123.303 Y134.402 E2.24343
G1 X122.686 Y134.402 E.03186
G1 X92.598 Y104.314 E2.19838
G1 X92.598 Y104.931 E.03186
G1 X122.069 Y134.402 E2.15332
G1 X121.453 Y134.402 E.03186
M73 P18 R6
G1 X92.598 Y105.547 E2.10827
G1 X92.598 Y106.164 E.03186
M73 P18 R5
G1 X120.836 Y134.402 E2.06321
G1 X120.219 Y134.402 E.03186
G1 X92.598 Y106.781 E2.01816
G1 X92.598 Y107.397 E.03186
G1 X119.603 Y134.402 E1.9731
G1 X118.986 Y134.402 E.03186
G1 X92.598 Y108.014 E1.92805
G1 X92.598 Y108.631 E.03186
G1 X118.369 Y134.402 E1.88299
G1 X117.753 Y134.402 E.03186
G1 X92.598 Y109.247 E1.83794
G1 X92.598 Y109.864 E.03186
M73 P19 R5
G1 X117.136 Y134.402 E1.79288
G1 X116.52 Y134.402 E.03186
G1 X92.598 Y110.48 E1.74783
G1 X92.598 Y111.097 E.03186
G1 X115.903 Y134.402 E1.70277
G1 X115.286 Y134.402 E.03186
G1 X92.598 Y111.714 E1.65772
G1 X92.598 Y112.33 E.03186
G1 X114.67 Y134.402 E1.61266
G1 X114.053 Y134.402 E.03186
G1 X92.598 Y112.947 E1.56761
G1 X92.598 Y113.564 E.03186
G1 X113.436 Y134.402 E1.52256
G1 X112.82 Y134.402 E.03186
M73 P20 R5
G1 X92.598 Y114.18 E1.4775
G1 X92.598 Y114.797 E.03186
G1 X112.203 Y134.402 E1.43245
G1 X111.586 Y134.402 E.03186
G1 X92.598 Y115.414 E1.38739
G1 X92.598 Y116.03 E.03186
G1 X110.97 Y134.402 E1.34234
G1 X110.353 Y134.402 E.03186
G1 X92.598 Y116.647 E1.29728
G1 X92.598 Y117.264 E.03186
G1 X109.736 Y134.402 E1.25223
G1 X109.12 Y134.402 E.03186
G1 X92.598 Y117.88 E1.20717
G1 X92.598 Y118.497 E.03186
G1 X108.503 Y134.402 E1.16212
G1 X107.887 Y134.402 E.03186
G1 X92.598 Y119.113 E1.11706
G1 X92.598 Y119.73 E.03186
G1 X107.27 Y134.402 E1.07201
G1 X106.653 Y134.402 E.03186
M73 P21 R5
G1 X92.598 Y120.347 E1.02695
G1 X92.598 Y120.963 E.03186
G1 X106.037 Y134.402 E.9819
G1 X105.42 Y134.402 E.03186
G1 X92.598 Y121.58 E.93685
G1 X92.598 Y122.197 E.03186
G1 X104.803 Y134.402 E.89179
G1 X104.187 Y134.402 E.03186
G1 X92.598 Y122.813 E.84674
G1 X92.598 Y123.43 E.03186
G1 X103.57 Y134.402 E.80168
G1 X102.953 Y134.402 E.03186
G1 X92.598 Y124.047 E.75663
G1 X92.598 Y124.663 E.03186
G1 X102.337 Y134.402 E.71157
G1 X101.72 Y134.402 E.03186
G1 X92.598 Y125.28 E.66652
G1 X92.598 Y125.896 E.03186
G1 X101.104 Y134.402 E.62146
G1 X100.487 Y134.402 E.03186
G1 X92.598 Y126.513 E.57641
G1 X92.598 Y127.13 E.03186
G1 X99.87 Y134.402 E.53135
G1 X99.254 Y134.402 E.03186
M73 P22 R5
G1 X92.598 Y127.746 E.4863
G1 X92.598 Y128.363 E.03186
G1 X98.637 Y134.402 E.44124
G1 X98.02 Y134.402 E.03186
G1 X92.598 Y128.98 E.39619
G1 X92.598 Y129.596 E.03186
G1 X97.404 Y134.402 E.35113
G1 X96.787 Y134.402 E.03186
G1 X92.598 Y130.213 E.30608
G1 X92.598 Y130.83 E.03186
G1 X96.17 Y134.402 E.26103
G1 X95.554 Y134.402 E.03186
G1 X92.598 Y131.446 E.21597
G1 X92.598 Y132.063 E.03186
G1 X94.937 Y134.402 E.17092
G1 X94.321 Y134.402 E.03186
G1 X92.598 Y132.679 E.12586
G1 X92.598 Y133.296 E.03186
G1 X93.704 Y134.402 E.08081
G1 X93.087 Y134.402 E.03186
G1 X92.402 Y133.717 E.05008
G1 E-1.2 F1800
;WIPE_START
G1 F9000
G1 X93.087 Y134.402
G1 X93.704 Y134.402
G1 X93.411 Y134.109
;WIPE_END
G1 X97.227 Y134.146 Z.5
G1 X127.226 Y134.431 Z.5
G1 Z.3
G1 E1.2 F1800
;TYPE:Gap infill
;WIDTH:0.138961
G2 X127.511 Y134.491 I.245 J-.455 E.00261
G1 E-1.2
;WIPE_START
G1 F9000
G1 X127.322 Y134.471
G1 X127.226 Y134.431
;WIPE_END
G1 X125.027 Y131.312 Z.5
G1 X92.774 Y85.569 Z.5
G1 Z.3
G1 E1.2 F1800
;WIDTH:0.157375
G2 X92.489 Y85.509 I-.245 J.455 E.00325
; stop printing object Object_1 id:0 copy 0
;TIME_ELAPSED:99.238831

;LAYER_CHANGE
;Z:0.5
;HEIGHT:0.2
;BEFORE_LAYER_CHANGE
;0.5
G92 E0

G1 E-1.2 F1800
;WIPE_START
G1 F9000
G1 X92.678 Y85.529
G1 X92.774 Y85.569
;WIPE_END
;_SET_FAN_SPEED_CHANGING_LAYER
M204 P2500
; printing object Object_1 id:0 copy 0
M204 T2500
G1 X96.59 Y85.57 Z.5
G1 X127.991 Y85.574 Z.5
G1 E1.2 F1800
M204 P2000
;TYPE:Inner wall
;WIDTH:0.449999
G1 F5400
G1 X127.991 Y134.991 E1.58906
G1 X92.009 Y134.991 E1.15704
G1 X92.009 Y85.009 E1.60723
G1 X127.991 Y85.009 E1.15704
G1 X127.991 Y85.534 E.01689
M73 P23 R5
G1 X128.398 Y85.052 F9000
G1 F5400
G1 X128.398 Y135.398 E1.61894
G1 X91.602 Y135.398 E1.18322
G1 X91.602 Y84.602 E1.63341
G1 X128.398 Y84.602 E1.18322
G1 X128.398 Y85.012 E.01318
G1 X128.79 Y84.21 F9000
M204 P1000
;TYPE:Outer wall
;WIDTH:0.419999
G1 F3600
G1 X128.79 Y135.79 E1.53639
G1 X91.21 Y135.79 E1.11938
G1 X91.21 Y84.21 E1.53639
G1 X128.75 Y84.21 E1.11819
M73 P24 R5
G1 E-1.2 F1800
;WIPE_START
G1 F9000
G1 X128.752 Y86.21
;WIPE_END
G1 X93.085 Y85.109 Z.7
G1 Z.7
G1 Z.5
G1 E1.2 F1800
M204 P2500
;TYPE:Internal solid infill
;WIDTH:0.420485
G1 F7945.651
G1 X92.279 Y85.916 E.03401
G1 X92.279 Y86.45 E.01593
G1 X93.45 Y85.279 E.04937
G1 X93.984 Y85.279 E.01593
G1 X92.279 Y86.984 E.07189
G1 X92.279 Y87.518 E.01593
G1 X94.518 Y85.279 E.09441
G1 X95.051 Y85.279 E.01593
G1 X92.279 Y88.051 E.11694
G1 X92.279 Y88.585 E.01593
G1 X95.585 Y85.279 E.13946
G1 X96.119 Y85.279 E.01593
G1 X92.279 Y89.119 E.16198
G1 X92.279 Y89.653 E.01593
G1 X96.653 Y85.279 E.1845
G1 X97.187 Y85.279 E.01593
G1 X92.279 Y90.187 E.20702
G1 X92.279 Y90.721 E.01593
G1 X97.721 Y85.279 E.22954
G1 X98.255 Y85.279 E.01593
G1 X92.279 Y91.255 E.25207
G1 X92.279 Y91.789 E.01593
G1 X98.789 Y85.279 E.27459
G1 X99.323 Y85.279 E.01593
G1 X92.279 Y92.323 E.29711
G1 X92.279 Y92.857 E.01593
G1 X99.857 Y85.279 E.31963
G1 X100.391 Y85.279 E.01593
G1 X92.279 Y93.391 E.34215
G1 X92.279 Y93.925 E.01593
G1 X100.925 Y85.279 E.36467
G1 X101.459 Y85.279 E.01593
G1 X92.279 Y94.459 E.3872
G1 X92.279 Y94.993 E.01593
G1 X101.993 Y85.279 E.40972
G1 X102.527 Y85.279 E.01593
G1 X92.279 Y95.527 E.43224
G1 X92.279 Y96.061 E.01593
G1 X103.061 Y85.279 E.45476
G1 X103.595 Y85.279 E.01593
G1 X92.279 Y96.595 E.47728
G1 X92.279 Y97.129 E.01593
G1 X104.129 Y85.279 E.4998
G1 X104.663 Y85.279 E.01593
G1 X92.279 Y97.663 E.52233
G1 X92.279 Y98.197 E.01593
M73 P25 R5
G1 X105.197 Y85.279 E.54485
G1 X105.731 Y85.279 E.01593
G1 X92.279 Y98.731 E.56737
G1 X92.279 Y99.265 E.01593
G1 X106.265 Y85.279 E.58989
G1 X106.799 Y85.279 E.01593
G1 X92.279 Y99.799 E.61241
G1 X92.279 Y100.333 E.01593
G1 X107.333 Y85.279 E.63493
G1 X107.866 Y85.279 E.01593
G1 X92.279 Y100.866 E.65746
G1 X92.279 Y101.4 E.01593
G1 X108.4 Y85.279 E.67998
G1 X108.934 Y85.279 E.01593
G1 X92.279 Y101.934 E.7025
G1 X92.279 Y102.468 E.01593
G1 X109.468 Y85.279 E.72502
G1 X110.002 Y85.279 E.01593
G1 X92.279 Y103.002 E.74754
G1 X92.279 Y103.536 E.01593
G1 X110.536 Y85.279 E.77006
G1 X111.07 Y85.279 E.01593
G1 X92.279 Y104.07 E.79259
G1 X92.279 Y104.604 E.01593
G1 X111.604 Y85.279 E.81511
G1 X112.138 Y85.279 E.01593
G1 X92.279 Y105.138 E.83763
G1 X92.279 Y105.672 E.01593
G1 X112.672 Y85.279 E.86015
G1 X113.206 Y85.279 E.01593
G1 X92.279 Y106.206 E.88267
G1 X92.279 Y106.74 E.01593
G1 X113.74 Y85.279 E.90519
G1 X114.274 Y85.279 E.01593
G1 X92.279 Y107.274 E.92772
G1 X92.279 Y107.808 E.01593
M73 P26 R5
G1 X114.808 Y85.279 E.95024
G1 X115.342 Y85.279 E.01593
G1 X92.279 Y108.342 E.97276
G1 X92.279 Y108.876 E.01593
G1 X115.876 Y85.279 E.99528
G1 X116.41 Y85.279 E.01593
G1 X92.279 Y109.41 E1.0178
G1 X92.279 Y109.944 E.01593
G1 X116.944 Y85.279 E1.04033
G1 X117.478 Y85.279 E.01593
G1 X92.279 Y110.478 E1.06285
G1 X92.279 Y111.012 E.01593
G1 X118.012 Y85.279 E1.08537
G1 X118.546 Y85.279 E.01593
G1 X92.279 Y111.546 E1.10789
G1 X92.279 Y112.08 E.01593
G1 X119.08 Y85.279 E1.13041
G1 X119.614 Y85.279 E.01593
G1 X92.279 Y112.614 E1.15293
G1 X92.279 Y113.147 E.01593
G1 X120.147 Y85.279 E1.17546
G1 X120.681 Y85.279 E.01593
G1 X92.279 Y113.681 E1.19798
G1 X92.279 Y114.215 E.01593
G1 X121.215 Y85.279 E1.2205
G1 X121.749 Y85.279 E.01593
M73 P27 R5
G1 X92.279 Y114.749 E1.24302
G1 X92.279 Y115.283 E.01593
G1 X122.283 Y85.279 E1.26554
G1 X122.817 Y85.279 E.01593
G1 X92.279 Y115.817 E1.28806
G1 X92.279 Y116.351 E.01593
G1 X123.351 Y85.279 E1.31059
G1 X123.885 Y85.279 E.01593
G1 X92.279 Y116.885 E1.33311
G1 X92.279 Y117.419 E.01593
G1 X124.419 Y85.279 E1.35563
G1 X124.953 Y85.279 E.01593
G1 X92.279 Y117.953 E1.37815
G1 X92.279 Y118.487 E.01593
G1 X125.487 Y85.279 E1.40067
G1 X126.021 Y85.279 E.01593
G1 X92.279 Y119.021 E1.42319
G1 X92.279 Y119.555 E.01593
G1 X126.555 Y85.279 E1.44572
G1 X127.089 Y85.279 E.01593
G1 X92.279 Y120.089 E1.46824
G1 X92.279 Y120.623 E.01593
M73 P28 R5
G1 X127.623 Y85.279 E1.49076
G1 X127.721 Y85.279 E.00292
G1 X127.721 Y85.715 E.013
G1 X92.279 Y121.157 E1.49489
G1 X92.279 Y121.691 E.01593
G1 X127.721 Y86.249 E1.49489
G1 X127.721 Y86.783 E.01593
G1 X92.279 Y122.225 E1.49489
